X: 5270
T: Bronntanas Posadh
R: jig
M: 6/8
K: Gmajor
GFG DGB|dcA GFD|F3A3|cAG FED|
GFG DGB|dcA cde|fed cAF|AGF G3:|
|:gdg fdf|ece dBA|GFG BAG|Ade fga|
bgd afd|gfg dBd|fed cAF|AGF G3:|

